X:6399
T:Swiss Hornpipe,The. GHW..074
O:england
M:2/4
L:1/8
Q:300
S:George H.Watson,MS,Swanton Abbott,Norfolk,1850-1880
R:Hornpipe
A:Norfolk
K:F
(3CDE)|F>EF>G F>Ac>A|dcAc FAGF|EGce dfBd|cBcd cBAG|
F>EF>G F>Ac>A|fagf edcB|(Ac)(FA) (GB)(EG)|F2F2F2:|
K:C
|:(GF)|EGce dfBd|cBcd ecGc|fedf edce|(3ded) (3cBA) G2 (GF)|
(EGce) (FAdf)|EGce dcBA|Gagf edcB|d2c2c2:|]


